src/modules/75-ce/components/COGatewayList/images/refresh.svg

<svg fill="none" height="8" viewBox="0 0 8 8" width="8" xmlns="http://www.w3.org/2000/svg"><path d="m6.82488 1.175c-.7225-.725-1.72-1.175-2.825-1.175-2.21 0-3.99499719 1.79-3.99499719 4s1.78499719 4 3.99499719 4c1.8625 0 3.4225-1.275 3.865-3h-1.04c-.4125 1.165-1.5175 2-2.825 2-1.6575 0-2.999997-1.3425-2.999997-3s1.342497-3 2.999997-3c.8275 0 1.57.345 2.1125.8875l-1.6125 1.6125h3.5v-3.5z" fill="#0278d5"/></svg>

<svg width="8" height="8" viewBox="0 0 8 8" fill="none" xmlns="http://www.w3.org/2000/svg">
<path d="M6.82488 1.175C6.10238 0.45 5.10488 0 3.99988 0C1.78988 0 0.00488281 1.79 0.00488281 4C0.00488281 6.21 1.78988 8 3.99988 8C5.86238 8 7.42238 6.725 7.86488 5H6.82488C6.41238 6.165 5.30738 7 3.99988 7C2.34238 7 0.999883 5.6575 0.999883 4C0.999883 2.3425 2.34238 1 3.99988 1C4.82738 1 5.56988 1.345 6.11238 1.8875L4.49988 3.5H7.99988V0L6.82488 1.175Z" fill="#0278D5"/>
</svg>
